X: 0027
T: Henningl\aaten
O: efter Frans Jakobsson
%R: polska
B: Paul B\"ackstr\"om's "L\aatar fr\aan Dalarna" collection" 1974
Z: 2022 John Chambers <jc:trillian.mit.edu>
M: 3/4
L: 1/16
K: D
%%slurgraces 1
%%graceslurs 1
% - - - - - - - - - -
|:\
([A,4D4A4] a2)[aA][aA] [a4A4] | ([A,4D4A4] g2)[gA][gA] [g4A4] |\
{fg}f3d f3a f3d | (ec3) [e8A8] | ([A,4D4A4] a2)[aA][aA] [a4A4] |\
([A,4D4A4] g2)[gA][gA] [g4A4] |
{fg}f3d f3a f3d | (ec3) [d8D8] ::\
[A3D3]d  [f3d3][fd] [f3d3]d | ([eA]c3) [e8A8] | {f}e3d Tc3A B3c |
d2dd d3A (FD3) | [A3D3]d [f3d3][fd] [f3d3]d | ([eA]c3) [e8A4] |\
{f}e3d Tc3A B3c |[1 {c}d4 [d6D6] A2 :|[2 {c}d4 [d8D8] |]
% - - - - - - - - - -
N: Trad.: Arvid B\"ackman
N: Uppt. Carl Gustav F\"arje o. Paul B\"ackstr\"om

%%sep 2 1 500
%%sep 1 1 500

